X: 443
T: A Tune For Frankie
R: jig
M: 6/8
K: Gmixolydian
|:D2 G FED|A,3 F3|A,3 CA,C A,CA,|G,A,G, G,A,C|
D2 G FED|A,3 F3|A,3 CA,C FCA,|G,3 G,GF:|
DGA _Bdc|BGD FED|F3 G3|Add d3|
DGA _Bdc|BGD FED|FCA, DCA,|G,A,G G,3||
DGA _Bdc|BGD FED|F3 G3|Add d3|
dcA _B2G|AFD DCD|C2F A,CA,|G,3 G,3||

